contributed-vectors/google_cloud_search.svg

<?xml version="1.0" encoding="UTF-8" standalone="no"?>
<svg
   xmlns:dc="http://purl.org/dc/elements/1.1/"
   xmlns:cc="http://creativecommons.org/ns#"
   xmlns:rdf="http://www.w3.org/1999/02/22-rdf-syntax-ns#"
   xmlns:svg="http://www.w3.org/2000/svg"
   xmlns="http://www.w3.org/2000/svg"
   xmlns:sodipodi="http://sodipodi.sourceforge.net/DTD/sodipodi-0.dtd"
   xmlns:inkscape="http://www.inkscape.org/namespaces/inkscape"
   sodipodi:docname="google_cloud_search.svg"
   inkscape:version="1.0.1 (3bc2e813f5, 2020-09-07)"
   version="1.1"
   id="svg2"
   viewBox="0 0 192 192"
   height="192"
   width="192"
   inkscape:export-filename="/home/jphilippe/inkscape/icônes/delta-github/png/google_cloud_search.png"
   inkscape:export-xdpi="96"
   inkscape:export-ydpi="96">
  <sodipodi:namedview
     inkscape:document-rotation="0"
     inkscape:window-maximized="1"
     inkscape:window-y="30"
     inkscape:window-x="1920"
     inkscape:window-height="1022"
     inkscape:window-width="1680"
     units="px"
     showgrid="false"
     inkscape:current-layer="layer1"
     inkscape:document-units="px"
     inkscape:cy="221.45886"
     inkscape:cx="24.149951"
     inkscape:zoom="0.70710678"
     inkscape:pageshadow="2"
     inkscape:pageopacity="0.0"
     borderopacity="1.0"
     bordercolor="#666666"
     pagecolor="#ffffff"
     id="base"
     inkscape:snap-bbox="false"
     inkscape:object-paths="true"
     inkscape:snap-nodes="true"
     showguides="true"
     inkscape:guide-bbox="true"
     inkscape:snap-object-midpoints="true"
     inkscape:snap-center="true"
     inkscape:snap-global="true"
     inkscape:snap-intersection-paths="true"
     inkscape:snap-smooth-nodes="true"
     inkscape:snap-midpoints="true" />
  <defs
     id="defs4" />
  <metadata
     id="metadata7">
    <rdf:RDF>
      <cc:Work
         rdf:about="">
        <dc:format>image/svg+xml</dc:format>
        <dc:type
           rdf:resource="http://purl.org/dc/dcmitype/StillImage" />
        <dc:title></dc:title>
      </cc:Work>
    </rdf:RDF>
  </metadata>
  <g
     transform="translate(0,-860.36216)"
     id="layer1"
     inkscape:groupmode="layer"
     inkscape:label="Calque 1">
    <path
       id="path2217"
       style="opacity:1;fill:#99bdfe;fill-opacity:1;stroke:none;stroke-width:2.50001;stroke-linecap:round;stroke-linejoin:round;stop-color:#000000"
       d="m 70.397133,893.96407 c -27.686727,-0.49868 -53.881276,19.85617 -60.366068,46.75169 -7.0931052,25.86164 4.902053,55.29953 28.029789,68.85834 11.9004,7.6414 26.222078,9.2813 40.097124,9.0444 22.582922,-0.3857 45.189312,0.5969 67.760902,-0.1176 20.11326,-0.6367 37.41791,-18.85141 37.98012,-38.96681 1.50171,-20.09917 -13.92924,-39.58588 -33.8464,-42.69643 -6.82946,-1.09409 -13.77156,-0.47999 -20.65729,-0.64143 -8.18029,-24.8285 -32.811669,-42.56675 -58.998177,-42.23214 z"
       sodipodi:nodetypes="cccssccccc" />
    <path
       id="circle2134"
       style="opacity:1;fill:#ffffff;stroke:none;stroke-width:2.50001;stroke-linecap:round;stroke-linejoin:round;stop-color:#000000;fill-opacity:1"
       d="M 70.34375 62.732422 A 33.221275 33.221275 0 0 0 37.121094 95.953125 A 33.221275 33.221275 0 0 0 70.34375 129.17578 A 33.221275 33.221275 0 0 0 88.476562 123.78906 L 107.12891 142.44141 C 108.48896 143.80146 110.67901 143.80146 112.03906 142.44141 L 116.23633 138.24414 C 117.59638 136.88408 117.59638 134.69404 116.23633 133.33398 L 97.701172 114.79883 A 33.221275 33.221275 0 0 0 103.56445 95.953125 A 33.221275 33.221275 0 0 0 70.34375 62.732422 z M 70.232422 75.59375 A 20.359875 20.359875 0 0 1 70.234375 75.59375 A 20.359875 20.359875 0 0 1 70.34375 75.59375 A 20.359875 20.359875 0 0 1 90.703125 95.953125 A 20.359875 20.359875 0 0 1 70.34375 116.31445 A 20.359875 20.359875 0 0 1 49.982422 95.953125 A 20.359875 20.359875 0 0 1 70.232422 75.59375 z "
       transform="translate(0,860.36216)" />
  </g>
  <style
     type="text/css"
     id="style853">
	.st0{fill:#FFFFFF;}
</style>
</svg>

<svg xmlns="http://www.w3.org/2000/svg" id="svg2" width="192" height="192" version="1.1"><g id="layer1" transform="translate(0 -860.362)"><path id="path2217" d="M70.397 893.964c-27.687-.499-53.881 19.856-60.366 46.752-7.093 25.861 4.902 55.3 28.03 68.858 11.9 7.642 26.222 9.281 40.097 9.045 22.583-.386 45.19.596 67.76-.118 20.114-.637 37.419-18.852 37.981-38.967 1.502-20.1-13.93-39.586-33.846-42.696-6.83-1.094-13.772-.48-20.658-.642-8.18-24.828-32.811-42.567-58.998-42.232z" style="opacity:1;fill:#99bdfe;fill-opacity:1;stroke:none;stroke-width:2.50001;stroke-linecap:round;stroke-linejoin:round;stop-color:#000"/><path id="circle2134" d="M70.344 62.732A33.221 33.221 0 0 0 37.12 95.953a33.221 33.221 0 0 0 33.223 33.223 33.221 33.221 0 0 0 18.133-5.387l18.652 18.652a3.465 3.465 0 0 0 4.91 0l4.197-4.197a3.465 3.465 0 0 0 0-4.91l-18.535-18.535a33.221 33.221 0 0 0 5.863-18.846 33.221 33.221 0 0 0-33.22-33.22zm-.112 12.862a20.36 20.36 0 0 1 .002 0 20.36 20.36 0 0 1 .11 0 20.36 20.36 0 0 1 20.36 20.36 20.36 20.36 0 0 1-20.36 20.36 20.36 20.36 0 0 1-20.362-20.36 20.36 20.36 0 0 1 20.25-20.36z" style="opacity:1;fill:#fff;stroke:none;stroke-width:2.50001;stroke-linecap:round;stroke-linejoin:round;stop-color:#000;fill-opacity:1" transform="translate(0 860.362)"/></g><style id="style853" type="text/css">.st0{fill:#fff}</style></svg>
